src/assets/wings.svg

<svg width="211" height="87" viewBox="0 0 211 87" fill="none" xmlns="http://www.w3.org/2000/svg">
<g filter="url(#filter0_d_340_59970)">
<path fill-rule="evenodd" clip-rule="evenodd" d="M4.38862 0.886741C3.81738 2.19535 3.88724 5.51984 4.52353 7.30143C6.18617 11.956 10.5415 16.9883 16.3499 20.9657C17.6328 21.8444 17.8158 22.0373 17.2661 21.9309C16.8881 21.8578 15.4351 21.6723 14.037 21.5185C11.2412 21.2116 9.19287 21.4459 8.40815 22.1628C7.76316 22.7524 7.86577 24.0823 8.6388 25.1566C12.3223 30.2754 24.465 36.5282 32.0265 37.1998L33.7313 37.3513L32.182 37.7799C26.2403 39.4234 25.4572 43.21 30.2935 46.9117C32.9363 48.9345 37.552 50.6693 40.386 50.705L41.545 50.7195L39.8271 51.5586C37.7066 52.5946 35.8074 54.4104 35.5833 55.6165C35.2982 57.1506 36.2945 58.7812 38.2696 60.0139C40.1741 61.2025 45.4699 62.222 48.152 61.9165L49.491 61.7641L47.8428 63.1964C44.6939 65.9332 43.4128 68.3984 44.2699 70.0723C45.5091 72.492 52.4386 73.3095 59.3203 71.8478C60.2264 71.6554 61.0011 71.5314 61.0418 71.5726C61.0826 71.6137 60.423 72.105 59.5762 72.6643C58.7292 73.2237 57.4373 74.2828 56.7053 75.0178C55.504 76.2239 55.381 76.4372 55.4456 77.203C55.4971 77.8163 55.6964 78.1862 56.1648 78.5373C56.7456 78.9723 57.102 79.0197 59.6005 78.9945C61.8392 78.9719 62.836 78.8446 64.6626 78.3483C71.3595 76.5292 83.6047 70.0977 91.6411 64.1789L92.7212 63.3833L92.8525 64.0332C93.7803 68.6244 95.5699 71.7578 98.5289 73.9724C99.8748 74.9796 102.865 76.5942 103.385 76.5942C103.517 76.5942 102.983 75.9161 102.197 75.0874C100.56 73.3593 99.1865 71.1306 98.4222 68.9619C97.9714 67.6831 97.8924 67.0094 97.8938 64.4518C97.8952 61.5922 97.9511 61.23 99.0338 57.0507C100.111 52.8934 100.172 52.5004 100.165 49.7653C100.158 47.2144 100.083 46.6563 99.5216 45.0239C97.3191 38.6146 93.6326 35.2875 86.7379 33.4865C83.9014 32.7457 81.2426 32.3086 75.3293 31.6113C72.6208 31.2919 68.9103 30.7583 67.0836 30.4257C46.5489 26.6856 21.2547 14.8186 7.79248 2.60912C6.86507 1.76794 5.80688 0.836784 5.44109 0.539814L4.77594 0L4.38862 0.886741ZM204.388 1.50798C194.198 10.896 178.225 19.8944 161.565 25.6317C151.448 29.1157 145.574 30.4095 132.82 31.9617C120.646 33.4435 115.485 36.0591 112.55 42.2346C110.234 47.1071 110.102 49.9834 111.877 56.9351C112.919 61.0186 112.969 61.3616 112.982 64.4518C112.994 67.4016 112.943 67.8285 112.401 69.2491C111.552 71.4729 110.479 73.1731 108.77 75.0016C107.951 75.8775 107.387 76.5942 107.517 76.5942C108.033 76.5942 111.028 74.9759 112.369 73.9724C115.381 71.7181 117.092 68.7253 118.037 64.0603C118.163 63.4379 118.166 63.439 121.655 65.8226C130.066 71.5675 140.105 76.6831 146.242 78.3502C148.061 78.8444 149.06 78.9719 151.297 78.9945C153.796 79.0197 154.152 78.9725 154.733 78.537C155.981 77.6017 155.655 76.2855 153.739 74.5171C153.057 73.8875 151.883 72.989 151.131 72.5199C150.378 72.0509 149.8 71.629 149.846 71.5826C149.892 71.5361 150.654 71.6515 151.538 71.8395C154.151 72.3943 158.201 72.7207 160.294 72.5447C164.789 72.1668 166.948 70.9504 166.948 68.7965C166.948 67.4493 165.425 65.2544 163.078 63.2191L161.565 61.9077L164.428 61.8686C171.133 61.7768 175.945 59.0129 175.314 55.6165C175.094 54.4289 173.198 52.6177 171.071 51.5612L169.353 50.7082L170.498 50.6976C174.454 50.6613 180.488 47.8192 182.634 44.9816C185.057 41.7769 183.621 39.1366 178.716 37.7799L177.166 37.3513L178.875 37.2056C186.327 36.5693 198.595 30.2478 202.259 25.1566C203.032 24.0823 203.135 22.7524 202.49 22.1628C201.705 21.4459 199.657 21.2116 196.861 21.5185C195.463 21.6723 194.01 21.8536 193.632 21.9218C193.023 22.0315 193.076 21.9605 194.09 21.3029C197.516 19.0807 201.805 15.0277 203.903 12.0289C206.042 8.9713 207.241 5.4479 206.959 3.04786C206.804 1.72746 206.337 0.0390885 206.127 0.0390885C206.047 0.0390885 205.265 0.700103 204.388 1.50798ZM20.5311 23.2686C21.836 24.2523 28.4403 27.0691 32.1561 28.2269C35.5666 29.2896 37.6148 29.7337 45.6296 31.1471C55.8081 32.9423 62.294 34.3323 74.4131 37.3157L76.5891 37.8513L73.1534 38.035C68.4032 38.2889 43.6194 38.0727 39.7669 37.7435C38.0332 37.5955 36.4356 37.5104 36.2167 37.5544C35.7535 37.6473 40.9939 38.532 44.9807 39.0336C48.8348 39.5187 60.1412 39.7111 64.5641 39.3669C66.5167 39.215 70.0727 39.0371 72.4662 38.9715L76.8181 38.8521L75.9592 39.5841C74.0285 41.2299 75.6135 42.9498 79.8743 43.8321C80.7994 44.0239 81.5958 44.2204 81.6441 44.269C81.6922 44.3178 79.1317 45.054 75.9537 45.9051C63.5549 49.2261 57.1093 50.2741 46.983 50.615C44.5569 50.6969 42.6016 50.7935 42.6377 50.8301C42.6739 50.8666 44.7305 51.0207 47.2081 51.1724C56.1609 51.721 64.6516 50.5569 73.726 47.5375C75.4266 46.9716 77.2819 46.4556 77.8488 46.391C78.4157 46.3263 79.1672 46.2282 79.519 46.1729C80.1342 46.0763 80.153 46.1022 80.0135 46.8536C79.9301 47.3018 79.9833 47.8521 80.1379 48.1437C80.6892 49.1838 83.9215 50.1894 86.8961 50.2463L88.0414 50.2681L86.4305 51.0399C83.6767 52.3596 77.8735 54.742 74.6848 55.8621C69.1066 57.8216 64.205 59.0215 52.5392 61.2839C51.5108 61.4835 51.4757 61.5089 52.1956 61.5332C53.4167 61.5744 58.7862 60.9185 62.5027 60.2741C72.0739 58.6149 81.0378 55.4408 86.644 51.7259L87.308 51.2859L87.0448 51.7825C86.9 52.0554 86.7816 52.7433 86.7816 53.3106C86.7816 54.8308 87.5384 55.5319 90.0455 56.3347C91.1477 56.6876 92.0497 57.047 92.0497 57.1337C92.0497 57.3812 87.7193 59.7461 83.575 61.762C79.9744 63.5133 71.3908 67.2862 66.1157 69.4364C60.6687 71.6568 65.4977 70.2138 73.2035 67.3186C81.0992 64.3521 87.1059 61.5265 90.8472 59.0189C91.7606 58.4067 92.5208 57.9738 92.5369 58.0566C92.5529 58.1394 92.6308 59.352 92.7098 60.7513L92.8536 63.2954L93.139 61.7717C93.3138 60.8391 93.3676 59.5692 93.2778 58.4974L93.1312 56.7468L91.7315 56.3518C89.0874 55.6054 87.2397 54.3468 87.2397 53.2916C87.2397 52.4461 87.6323 51.8265 88.9007 50.6698L90.0648 49.6084L87.3352 49.4653C84.3975 49.3112 82.6203 48.8931 81.6597 48.1301C80.5268 47.2304 80.8766 46.565 83.6489 44.346C84.4142 43.7336 84.6806 43.3881 84.5154 43.2213C84.3842 43.0888 83.1838 42.9016 81.8475 42.8054C78.5634 42.5686 77.7345 42.4062 77.0538 41.8655C76.234 41.2144 76.2931 40.3871 77.199 39.8309C77.8337 39.4412 78.858 39.2071 81.9442 38.7469C82.4389 38.6731 82.6391 38.5512 82.4984 38.4092C82.2605 38.1689 78.2627 37.0957 70.5599 35.2045C67.8736 34.5449 64.5753 33.6436 63.2304 33.2011C59.6424 32.0213 55.9007 30.0922 54.3755 28.6358C53.5337 27.8321 53.1581 27.5865 53.2501 27.9003C53.5184 28.8146 54.4861 30.2962 55.2245 30.9237L55.9719 31.5588L54.1409 31.3948C45.7558 30.6447 33.1479 27.6697 23.7057 24.2134C19.6738 22.7373 19.926 22.8125 20.5311 23.2686ZM188.707 23.6475C180.082 27.0827 165.538 30.6094 156.757 31.3948L154.926 31.5588L155.682 30.916C156.403 30.3036 157.779 28.1772 157.784 27.669C157.785 27.5372 157.203 27.9859 156.49 28.6666C154.941 30.1461 151.375 31.9705 147.593 33.2187C145.293 33.978 143.423 34.4706 134.881 36.5681C128.523 38.1293 127.452 38.523 128.954 38.7469C132.04 39.2071 133.064 39.4412 133.699 39.8309C134.605 40.3871 134.664 41.2144 133.844 41.8655C133.17 42.4012 132.46 42.5422 129.074 42.8147C127.706 42.9246 126.487 43.1154 126.366 43.2382C126.223 43.3823 126.537 43.7768 127.249 44.346C127.856 44.8324 128.688 45.5425 129.098 45.9241C131.09 47.7813 128.925 49.1884 123.64 49.4699C122.264 49.5432 121.139 49.6794 121.139 49.7724C121.139 49.8654 121.508 50.2262 121.96 50.574C122.962 51.3458 123.656 52.4479 123.657 53.2683C123.659 54.1435 122.441 55.1287 120.421 55.8881C119.493 56.2371 118.517 56.6059 118.253 56.7079C117.84 56.8673 117.753 57.1481 117.633 58.7067C117.542 59.8893 117.601 61.0027 117.804 61.9077L118.114 63.2954L118.14 61.4451C118.154 60.4275 118.227 59.2211 118.302 58.7643L118.438 57.9338L119.903 58.9258C123.521 61.3753 129.95 64.4083 137.719 67.3297C142.415 69.0953 147.031 70.6475 147.17 70.5071C147.208 70.4689 146.133 69.9869 144.782 69.4355C139.411 67.2443 130.903 63.5054 127.323 61.7629C123.327 59.8183 118.848 57.3833 118.848 57.1555C118.848 57.0808 119.429 56.8347 120.139 56.6085C122.314 55.9165 123.382 55.3723 123.785 54.7515C124.23 54.0662 124.271 52.5721 123.867 51.8098C123.596 51.2977 123.602 51.294 124.139 51.647C131.291 56.346 142.382 59.7901 154.975 61.2219C160.06 61.8004 159.954 61.5291 154.714 60.5537C143.301 58.4296 136.635 56.408 126.865 52.1077L122.856 50.3435L124.803 50.1818C127.094 49.9915 128.429 49.6813 129.636 49.0594C130.719 48.502 131.074 47.874 130.884 46.8536C130.745 46.1022 130.764 46.0763 131.379 46.1729C131.731 46.2282 132.482 46.326 133.049 46.3903C133.616 46.4546 135.338 46.9258 136.876 47.4371C146.201 50.5373 154.709 51.7226 163.69 51.1724C166.167 51.0207 168.224 50.8666 168.26 50.8303C168.296 50.7938 166.289 50.6943 163.8 50.6094C156.499 50.3601 150.668 49.6399 143.913 48.153C140.219 47.3398 129.124 44.4001 129.254 44.269C129.302 44.2204 130.075 44.0271 130.972 43.8397C133.966 43.2139 135.798 42.0938 135.798 40.8881C135.798 40.5116 135.504 40.0661 134.939 39.5841L134.08 38.8521L138.432 38.9715C140.825 39.0371 144.381 39.215 146.334 39.3669C150.757 39.7111 162.063 39.5187 165.917 39.0336C169.709 38.5565 175.088 37.6644 174.786 37.5627C174.649 37.5167 173.062 37.5971 171.258 37.7415C165.112 38.2334 134.007 38.313 134.48 37.8356C134.608 37.7066 149.738 34.1441 153.465 33.3658C155.309 32.9805 160.359 32.0366 164.688 31.2681C176.269 29.2122 181.006 27.8756 187.246 24.9038C191.167 23.0362 191.965 22.3499 188.707 23.6475Z" fill="#E1017D"/>
</g>
<defs>
<filter id="filter0_d_340_59970" x="0" y="0" width="211" height="87" filterUnits="userSpaceOnUse" color-interpolation-filters="sRGB">
<feFlood flood-opacity="0" result="BackgroundImageFix"/>
<feColorMatrix in="SourceAlpha" type="matrix" values="0 0 0 0 0 0 0 0 0 0 0 0 0 0 0 0 0 0 127 0" result="hardAlpha"/>
<feOffset dy="4"/>
<feGaussianBlur stdDeviation="2"/>
<feComposite in2="hardAlpha" operator="out"/>
<feColorMatrix type="matrix" values="0 0 0 0 0 0 0 0 0 0 0 0 0 0 0 0 0 0 0.86 0"/>
<feBlend mode="normal" in2="BackgroundImageFix" result="effect1_dropShadow_340_59970"/>
<feBlend mode="normal" in="SourceGraphic" in2="effect1_dropShadow_340_59970" result="shape"/>
</filter>
</defs>
</svg>

<svg xmlns="http://www.w3.org/2000/svg" width="211" height="87" fill="none" viewBox="0 0 211 87"><g filter="url(#a)"><path fill="#e1017d" fill-rule="evenodd" d="M4.389.887c-.572 1.308-.502 4.633.135 6.414 1.662 4.655 6.017 9.687 11.826 13.665 1.283.878 1.466 1.071.916.965-.378-.073-1.83-.259-3.229-.413-2.796-.306-4.844-.072-5.629.645-.645.59-.542 1.92.23 2.994 3.684 5.118 15.827 11.371 23.389 12.043l1.704.151-1.549.429c-5.942 1.643-6.725 5.43-1.889 9.132 2.643 2.023 7.259 3.757 10.093 3.793l1.159.014-1.718.84c-2.12 1.036-4.02 2.851-4.244 4.058-.285 1.534.712 3.164 2.687 4.397 1.904 1.188 7.2 2.208 9.882 1.902l1.339-.152-1.648 1.432c-3.15 2.737-4.43 5.202-3.573 6.876 1.24 2.42 8.169 3.237 15.05 1.776.906-.193 1.681-.317 1.722-.275.04.04-.619.532-1.466 1.091-.847.56-2.139 1.619-2.87 2.354-1.202 1.206-1.325 1.42-1.26 2.185.051.613.25.983.719 1.334.58.435.937.483 3.435.457 2.24-.022 3.236-.15 5.063-.646 6.697-1.819 18.942-8.25 26.978-14.17l1.08-.795.132.65c.927 4.591 2.717 7.725 5.676 9.94 1.346 1.007 4.336 2.621 4.856 2.621.132 0-.402-.678-1.188-1.507-1.637-1.728-3.01-3.956-3.775-6.125-.45-1.279-.53-1.953-.528-4.51.001-2.86.057-3.222 1.14-7.401 1.077-4.158 1.138-4.55 1.131-7.286-.007-2.55-.082-3.109-.643-4.741-2.203-6.41-5.89-9.736-12.784-11.538-2.837-.74-5.495-1.177-11.409-1.875-2.708-.32-6.419-.853-8.245-1.185-20.535-3.74-45.83-15.607-59.292-27.817A85 85 0 0 0 5.442.54L4.775 0zm199.999.621c-10.19 9.388-26.163 18.386-42.823 24.124-10.117 3.484-15.991 4.778-28.745 6.33-12.174 1.482-17.335 4.097-20.27 10.273-2.316 4.872-2.448 7.748-.673 14.7 1.042 4.084 1.092 4.427 1.105 7.517.012 2.95-.039 3.377-.581 4.797-.849 2.224-1.922 3.924-3.631 5.753-.819.876-1.383 1.592-1.253 1.592.516 0 3.511-1.618 4.852-2.622 3.012-2.254 4.723-5.247 5.668-9.912.126-.622.129-.621 3.618 1.763 8.411 5.745 18.45 10.86 24.587 12.527 1.819.494 2.818.622 5.055.645 2.499.025 2.855-.023 3.436-.458 1.248-.935.922-2.252-.994-4.02-.682-.63-1.856-1.528-2.608-1.997-.753-.47-1.331-.891-1.285-.937s.808.069 1.692.257c2.613.554 6.663.88 8.756.705 4.495-.378 6.654-1.595 6.654-3.749 0-1.347-1.523-3.542-3.87-5.577l-1.513-1.311 2.863-.04c6.705-.091 11.517-2.855 10.886-6.251-.22-1.188-2.116-3-4.243-4.056l-1.718-.853 1.145-.01c3.956-.037 9.99-2.879 12.136-5.716 2.423-3.205.987-5.845-3.918-7.202l-1.55-.429 1.709-.145c7.452-.637 19.72-6.958 23.384-12.05.773-1.074.876-2.404.231-2.993-.785-.717-2.833-.951-5.629-.645-1.398.154-2.851.336-3.229.404-.609.11-.556.038.458-.62 3.426-2.221 7.715-6.274 9.813-9.273 2.139-3.058 3.338-6.581 3.056-8.981-.155-1.32-.622-3.009-.832-3.009-.08 0-.862.661-1.739 1.469M20.531 23.268c1.305.984 7.91 3.801 11.625 4.959 3.41 1.063 5.459 1.507 13.474 2.92 10.178 1.795 16.664 3.185 28.783 6.169l2.176.535-3.436.184c-4.75.254-29.534.038-33.386-.291-1.734-.148-3.331-.234-3.55-.19-.463.093 4.777.978 8.764 1.48 3.854.485 15.16.677 19.583.333 1.953-.152 5.509-.33 7.902-.395l4.352-.12-.859.732c-1.93 1.646-.346 3.366 3.915 4.248.925.192 1.722.388 1.77.437s-2.512.785-5.69 1.636c-12.4 3.321-18.845 4.37-28.971 4.71-2.426.082-4.381.178-4.345.215s2.093.19 4.57.342c8.953.549 17.444-.615 26.518-3.634 1.7-.566 3.556-1.082 4.123-1.147a51 51 0 0 0 1.67-.218c.615-.097.634-.07.494.68-.083.449-.03 1 .125 1.29.551 1.04 3.783 2.046 6.758 2.103l1.145.022-1.61.772c-2.754 1.32-8.557 3.702-11.746 4.822-5.578 1.96-10.48 3.16-22.146 5.422-1.028.2-1.063.225-.343.25 1.22.04 6.59-.615 10.307-1.26 9.57-1.66 18.535-4.833 24.141-8.548l.664-.44-.263.496c-.145.273-.263.961-.263 1.529 0 1.52.756 2.22 3.264 3.024 1.102.353 2.004.712 2.004.799 0 .247-4.33 2.612-8.475 4.628-3.6 1.751-12.184 5.524-17.46 7.674-5.446 2.22-.617.778 7.089-2.117 7.895-2.967 13.902-5.793 17.643-8.3.914-.612 1.674-1.045 1.69-.962s.094 1.295.173 2.694l.144 2.544.285-1.523c.175-.933.229-2.203.139-3.275l-.147-1.75-1.4-.395c-2.644-.747-4.491-2.005-4.491-3.06 0-.846.392-1.465 1.66-2.622l1.165-1.062-2.73-.143c-2.937-.154-4.715-.572-5.675-1.335-1.133-.9-.783-1.565 1.989-3.784.765-.612 1.032-.958.866-1.125-.13-.132-1.331-.32-2.668-.416-3.284-.236-4.112-.399-4.793-.94-.82-.65-.76-1.478.145-2.034.635-.39 1.659-.624 4.745-1.084.495-.074.695-.196.554-.338-.238-.24-4.235-1.313-11.938-3.204-2.686-.66-5.985-1.561-7.33-2.004-3.588-1.18-7.33-3.109-8.854-4.565q-1.264-1.207-1.126-.736c.268.915 1.236 2.396 1.974 3.024l.748.635-1.831-.164c-8.385-.75-20.993-3.725-30.435-7.182-4.032-1.476-3.78-1.4-3.175-.944m168.176.38c-8.625 3.435-23.169 6.961-31.95 7.747l-1.831.164.756-.643c.721-.612 2.097-2.739 2.102-3.247.001-.132-.581.317-1.294.998-1.549 1.48-5.115 3.303-8.897 4.552-2.3.759-4.17 1.252-12.712 3.35-6.358 1.56-7.429 1.954-5.927 2.178 3.086.46 4.11.694 4.745 1.084.906.556.965 1.383.145 2.034-.674.536-1.384.677-4.77.95-1.368.11-2.587.3-2.708.423-.143.144.171.539.883 1.108a41 41 0 0 1 1.849 1.578c1.992 1.857-.173 3.264-5.458 3.546-1.376.073-2.501.21-2.501.302 0 .093.369.454.821.802 1.002.772 1.696 1.874 1.697 2.694.002.876-1.216 1.86-3.236 2.62-.928.35-1.904.718-2.168.82-.413.16-.5.44-.62 1.999-.091 1.182-.032 2.296.171 3.2l.31 1.388.026-1.85c.014-1.017.087-2.224.162-2.68l.136-.831 1.465.992c3.618 2.45 10.047 5.482 17.816 8.404 4.696 1.765 9.312 3.317 9.451 3.177.038-.038-1.037-.52-2.388-1.072-5.371-2.19-13.879-5.93-17.459-7.672-3.996-1.945-8.475-4.38-8.475-4.607 0-.075.581-.321 1.291-.547 2.175-.693 3.243-1.237 3.646-1.858.445-.685.486-2.179.082-2.941-.271-.512-.265-.516.272-.163 7.152 4.699 18.243 8.143 30.836 9.575 5.085.578 4.979.307-.261-.668-11.413-2.124-18.079-4.146-27.849-8.446l-4.009-1.764 1.947-.162c2.291-.19 3.626-.5 4.833-1.123 1.083-.557 1.438-1.185 1.248-2.205-.139-.752-.12-.778.495-.681.352.055 1.103.153 1.67.217.567.065 2.289.536 3.827 1.047 9.325 3.1 17.833 4.286 26.814 3.735 2.477-.151 4.534-.305 4.57-.342.036-.036-1.971-.136-4.46-.22-7.301-.25-13.132-.97-19.887-2.457-3.694-.813-14.789-3.753-14.659-3.884.048-.049.821-.242 1.718-.43 2.994-.625 4.826-1.745 4.826-2.95 0-.377-.294-.823-.859-1.305l-.859-.732 4.352.12c2.393.065 5.949.243 7.902.395 4.423.344 15.729.152 19.583-.333 3.792-.477 9.171-1.37 8.869-1.471-.137-.046-1.724.034-3.528.178-6.146.492-37.251.572-36.778.095.128-.13 15.258-3.692 18.985-4.47 1.844-.386 6.894-1.33 11.223-2.098 11.581-2.056 16.318-3.392 22.558-6.364 3.921-1.868 4.719-2.554 1.461-1.256" clip-rule="evenodd"/></g><defs><filter id="a" width="211" height="87" x="0" y="0" color-interpolation-filters="sRGB" filterUnits="userSpaceOnUse"><feFlood flood-opacity="0" result="BackgroundImageFix"/><feColorMatrix in="SourceAlpha" result="hardAlpha" values="0 0 0 0 0 0 0 0 0 0 0 0 0 0 0 0 0 0 127 0"/><feOffset dy="4"/><feGaussianBlur stdDeviation="2"/><feComposite in2="hardAlpha" operator="out"/><feColorMatrix values="0 0 0 0 0 0 0 0 0 0 0 0 0 0 0 0 0 0 0.86 0"/><feBlend in2="BackgroundImageFix" result="effect1_dropShadow_340_59970"/><feBlend in="SourceGraphic" in2="effect1_dropShadow_340_59970" result="shape"/></filter></defs></svg>
